svg/Pictogram/pictograms-money_exchange.svg

<?xml version="1.0" encoding="UTF-8" standalone="no"?>
<!-- Created with Inkscape (http://www.inkscape.org/) --><svg height="268.875" id="svg2359" inkscape:export-filename="X:\Privat\osm\icons\bureau-de-change\bureau_de_change.png" inkscape:export-xdpi="13.054394" inkscape:export-ydpi="13.054394" inkscape:output_extension="org.inkscape.output.svg.inkscape" inkscape:version="0.45.1" sodipodi:docbase="/Users/johnolsen/Desktop" sodipodi:docname="andreas_Bureau_de_change.svg" sodipodi:version="0.32" version="1.0" width="279.21875" xmlns="http://www.w3.org/2000/svg" xmlns:cc="http://web.resource.org/cc/" xmlns:dc="http://purl.org/dc/elements/1.1/" xmlns:inkscape="http://www.inkscape.org/namespaces/inkscape" xmlns:rdf="http://www.w3.org/1999/02/22-rdf-syntax-ns#" xmlns:sodipodi="http://sodipodi.sourceforge.net/DTD/sodipodi-0.dtd" xmlns:svg="http://www.w3.org/2000/svg" xmlns:xlink="http://www.w3.org/1999/xlink">
  <metadata>
    <rdf:RDF xmlns:cc="http://web.resource.org/cc/" xmlns:dc="http://purl.org/dc/elements/1.1/" xmlns:rdf="http://www.w3.org/1999/02/22-rdf-syntax-ns#">
      <cc:Work rdf:about="">
        <dc:title></dc:title>
        <dc:description></dc:description>
        <dc:subject>
          <rdf:Bag>
            <rdf:li>unsorted</rdf:li>
          </rdf:Bag>
        </dc:subject>
        <dc:publisher>
          <cc:Agent rdf:about="http://www.openclipart.org/">
            <dc:title>Open Clip Art Library, Source: Open Clip Art Library, Source: Open Clip Art Library</dc:title>
          </cc:Agent>
        </dc:publisher>
        <dc:creator>
          <cc:Agent>
            <dc:title></dc:title>
          </cc:Agent>
        </dc:creator>
        <dc:rights>
          <cc:Agent>
            <dc:title></dc:title>
          </cc:Agent>
        </dc:rights>
        <dc:date></dc:date>
        <dc:format>image/svg+xml</dc:format>
        <dc:type rdf:resource="http://purl.org/dc/dcmitype/StillImage"/>
        <cc:license rdf:resource="http://en.wikipedia.org/wiki/Public_domain"/>
        <dc:language>en</dc:language>
      </cc:Work>
    </rdf:RDF>
  </metadata>
  <defs id="defs2361"/>
  <sodipodi:namedview bordercolor="#666666" borderopacity="1.0" id="base" inkscape:current-layer="g3233" inkscape:cx="139.60937" inkscape:cy="134.4375" inkscape:document-units="px" inkscape:pageopacity="0.0" inkscape:pageshadow="2" inkscape:window-height="995" inkscape:window-width="1400" inkscape:window-x="0" inkscape:window-y="22" inkscape:zoom="3.0051139" pagecolor="#ffffff"/>
  <g id="layer1" inkscape:groupmode="layer" inkscape:label="Ebene 1" transform="translate(-149.625, -385.781)">
    <path d="M 160.9375,387.78125 C 158.46714,387.77951 156.09745,388.76008 154.35064,390.50689 C 152.60383,392.2537 151.62326,394.62339 151.625,397.09375 L 151.625,643.34375 C 151.62326,645.81411 152.60383,648.1838 154.35064,649.93061 C 156.09745,651.67742 158.46714,652.65799 160.9375,652.65625 L 417.53125,652.65625 C 420.00161,652.65799 422.3713,651.67742 424.11811,649.93061 C 425.86492,648.1838 426.84549,645.81411 426.84375,643.34375 L 426.84375,397.09375 C 426.84549,394.62339 425.86492,392.2537 424.11811,390.50689 C 422.3713,388.76008 420.00161,387.77951 417.53125,387.78125 L 160.9375,387.78125 z M 170.21875,406.40625 L 408.21875,406.40625 L 408.21875,634.0625 L 170.21875,634.0625 L 170.21875,406.40625 z " id="rect3460" inkscape:export-filename="X:\Privat\osm\icons\bureau-de-change\bureau_de_change.png" inkscape:export-xdpi="13.054394" inkscape:export-ydpi="13.054394" style="opacity: 1; fill: rgb(0, 0, 255); fill-opacity: 1; stroke: rgb(0, 0, 0); stroke-width: 4; stroke-linecap: round; stroke-linejoin: round; stroke-miterlimit: 1; stroke-dasharray: none; stroke-opacity: 1;"/>
    <g id="g3218" inkscape:export-filename="X:\Privat\osm\icons\bureau-de-change\bureau_de_change.png" inkscape:export-xdpi="13.054394" inkscape:export-ydpi="13.054394" transform="matrix(0.610313, 0, 0, 0.610313, 218.623, 378.76)">
      <use height="1052.3622" id="use3214" transform="translate(-196.429, -192.857)" width="744.09448" x="0" xlink:href="#path2237" y="0"/>
      <path d="M 33.92578,377.89719 L 27.578124,377.89719 L 27.514647,358.79074 C 23.071255,358.70611 18.6279,358.18771 14.184569,357.23557 C 9.7411902,356.28342 5.2766765,354.8552 0.79101467,352.9509 L 0.79101467,341.52512 C 5.1074058,344.23346 9.4767048,346.27529 13.898925,347.6506 C 18.321097,349.02594 22.880826,349.73476 27.578124,349.77707 L 27.578124,320.83176 C 18.225882,319.30836 11.423317,316.72698 7.1704092,313.08762 C 2.9174666,309.44834 0.79100388,304.45486 0.79101467,298.10715 C 0.79100388,291.20943 3.0973167,285.77161 7.70996,281.79367 C 12.322568,277.81589 18.945283,275.53073 27.578124,274.9382 L 27.578124,260.02121 L 33.92578,260.02121 L 33.92578,274.74777 C 37.861279,274.91713 41.669869,275.32972 45.351562,275.98557 C 49.033143,276.64157 52.630145,277.54082 56.142577,278.68332 L 56.142577,289.79172 C 52.630145,288.01444 49.022564,286.63912 45.319823,285.66574 C 41.616972,284.69251 37.818962,284.12122 33.92578,283.95187 L 33.92578,311.05637 C 43.531847,312.53753 50.598897,315.18239 55.126952,318.99094 C 59.654877,322.79957 61.918872,328.00464 61.918944,334.60617 C 61.918872,341.75788 59.517345,347.39671 54.714355,351.52267 C 49.911235,355.64865 42.981717,358.02902 33.92578,358.66379 L 33.92578,377.89719 z M 27.578124,309.91379 L 27.578124,283.8884 C 22.669237,284.4386 18.924124,285.83508 16.342772,288.07785 C 13.761369,290.32076 12.47068,293.30415 12.470702,297.02805 C 12.47068,300.66743 13.666154,303.50271 16.057128,305.53391 C 18.44805,307.56521 22.288378,309.02517 27.578124,309.91379 L 27.578124,309.91379 z M 33.92578,322.10129 L 33.92578,349.58664 C 39.30008,348.86725 43.351996,347.34381 46.081542,345.01633 C 48.810975,342.68887 50.17572,339.62084 50.17578,335.81223 C 50.17572,332.08829 48.874452,329.12606 46.271972,326.92551 C 43.669379,324.72502 39.553986,323.11695 33.92578,322.10129 L 33.92578,322.10129 z " id="text2221" style="font-size: 130px; fill: rgb(255, 255, 255);"/>
    </g>
    <use height="1052.3622" id="use3216" inkscape:export-filename="X:\Privat\osm\icons\bureau-de-change\bureau_de_change.png" inkscape:export-xdpi="13.054394" inkscape:export-ydpi="13.054394" transform="matrix(0.610313, 0, 0, 0.610313, 98.7405, 157.449)" width="744.09448" x="0" xlink:href="#path2237" y="0"/>
    <path d="M 255.21228,440.18064 L 255.21228,447.23143 C 253.24938,446.17257 251.38984,445.37839 249.63364,444.84888 C 247.87736,444.31948 246.21152,444.05475 244.63611,444.0547 C 240.81368,444.05475 238.15349,445.05555 236.65555,447.05709 C 235.15756,449.05874 234.40858,452.7972 234.4086,458.27248 L 234.4086,466.6017 L 249.55616,466.6017 L 249.55616,472.1416 L 234.4086,472.1416 L 234.4086,490.15596 L 255.98709,490.15596 L 255.98709,496.74185 L 217.51772,496.74185 L 217.51772,490.15596 L 226.66049,490.15596 L 226.66049,472.1416 L 218.95112,472.1416 L 218.95112,466.6017 L 226.66049,466.6017 L 226.66049,457.38145 C 226.66048,450.64064 228.04222,445.70122 230.80573,442.56319 C 233.5692,439.42526 237.94688,437.85627 243.93878,437.85621 C 245.51419,437.85627 247.27689,438.05643 249.22686,438.45669 C 251.17676,438.85707 253.1719,439.43172 255.21228,440.18064 L 255.21228,440.18064 z " id="text2225" style="font-size: 79.3407px; fill: rgb(255, 255, 255);"/>
    <g id="g3223" inkscape:export-filename="X:\Privat\osm\icons\bureau-de-change\bureau_de_change.png" inkscape:export-xdpi="13.054394" inkscape:export-ydpi="13.054394" transform="matrix(0.610313, 0, 0, 0.610313, 186.655, 271.664)">
      <use height="1052.3622" id="use3212" style="fill: rgb(40, 11, 11);" transform="translate(25.7143, -187.143)" width="744.09448" x="0" xlink:href="#path2237" y="0"/>
      <path d="M 286.80734,347.76605 L 260.59152,347.76605 L 260.59152,376.64789 L 247.83273,376.64789 L 247.83273,347.76605 L 221.42648,347.76605 L 221.42648,339.95844 L 247.83273,339.95844 L 247.83273,336.72113 L 242.5007,326.88226 L 221.42648,326.88226 L 221.42648,319.07465 L 238.1843,319.07465 L 218.06223,281.87738 L 230.12277,281.87738 L 254.18039,326.31097 L 278.11105,281.87738 L 290.23508,281.87738 L 270.04953,319.07465 L 286.80734,319.07465 L 286.80734,326.88226 L 265.7966,326.88226 L 260.46457,336.72113 L 260.46457,339.95844 L 286.80734,339.95844 L 286.80734,347.76605 z " id="text2229" style="font-size: 130px; fill: rgb(255, 255, 255);"/>
    </g>
    <g id="g3233" inkscape:export-filename="X:\Privat\osm\icons\bureau-de-change\bureau_de_change.png" inkscape:export-xdpi="13.054394" inkscape:export-ydpi="13.054394" style="font-weight: normal; stroke: rgb(0, 0, 0); stroke-width: 6.55402; stroke-miterlimit: 4; stroke-dasharray: none; stroke-opacity: 1;" transform="matrix(0.610313, 0, 0, 0.610313, 202.349, 261.057)">
      <path d="M 306.42857 509.50504 A 74.285713 74.285713 0 1 1  157.85714,509.50504 A 74.285713 74.285713 0 1 1  306.42857 509.50504 z" id="path2237" inkscape:export-filename="X:\Privat\osm\icons\bureau-de-change\bureau_de_change.png" inkscape:export-xdpi="13.054394" inkscape:export-ydpi="13.054394" sodipodi:cx="232.14285" sodipodi:cy="509.50504" sodipodi:rx="74.285713" sodipodi:ry="74.285713" sodipodi:type="arc" style="font-weight: normal; opacity: 0.818182; fill: rgb(0, 0, 255); fill-opacity: 1; stroke: rgb(0, 0, 0); stroke-width: 6.84836; stroke-linejoin: round; stroke-miterlimit: 4; stroke-dasharray: none; stroke-opacity: 1;" transform="matrix(0.95702, 0, 0, 0.95702, 5.33463, 23.6842)"/>
      <path d="M 253.1363,474.07362 L 253.1363,486.51315 C 249.59321,482.42512 246.17672,479.50504 242.88683,477.75292 C 239.59682,476.00095 235.9662,475.12493 231.99494,475.12485 C 225.8822,475.12493 220.85968,477.07165 216.92734,480.96501 C 212.99494,484.85851 210.40581,490.44559 209.15993,497.72625 L 242.85763,497.72625 L 239.64554,504.90964 L 208.22551,504.90964 C 208.14762,505.84412 208.09895,506.75907 208.0795,507.65452 C 208.06001,508.55005 208.05028,509.67915 208.0503,511.04181 C 208.05028,512.28775 208.06001,513.35844 208.0795,514.25389 C 208.09895,515.14942 208.14762,516.06438 208.22551,516.99876 L 234.2726,516.99876 L 231.00211,524.18216 L 209.15993,524.18216 C 210.40581,531.46291 212.99494,537.06945 216.92734,541.0018 C 220.85968,544.93418 225.8822,546.90037 231.99494,546.90036 C 235.9662,546.90037 239.59682,546.02435 242.88683,544.27229 C 246.17672,542.52026 249.59321,539.60018 253.1363,535.51206 L 253.1363,547.83479 C 249.67108,550.63806 246.13779,552.74052 242.53642,554.14215 C 238.93494,555.54379 235.26538,556.24461 231.52773,556.24461 C 222.30025,556.24461 214.67885,553.42187 208.66352,547.77638 C 202.64814,542.13091 198.86178,534.26618 197.30442,524.18216 L 184.98169,524.18216 L 188.19377,516.99876 L 196.31159,516.99876 C 196.31158,516.10331 196.30185,515.19809 196.28239,514.28309 C 196.26291,513.36818 196.25318,512.28775 196.25319,511.04181 C 196.25318,509.67915 196.26291,508.54032 196.28239,507.62532 C 196.30185,506.71041 196.31158,505.80518 196.31159,504.90964 L 184.98169,504.90964 L 188.19377,497.72625 L 197.30442,497.72625 C 198.86178,487.72019 202.65788,479.89438 208.69272,474.24883 C 214.72752,468.60343 222.33918,465.78069 231.52773,465.7806 C 235.34325,465.78069 239.05174,466.47177 242.65322,467.85386 C 246.25459,469.23611 249.74895,471.30936 253.1363,474.07362 L 253.1363,474.07362 z " id="text3505" style="font-size: 119.606px; fill: rgb(255, 255, 255); stroke: none; stroke-width: 6.03002;"/>
    </g>
  </g>
</svg>

<svg xmlns="http://www.w3.org/2000/svg" xmlns:xlink="http://www.w3.org/1999/xlink" viewBox="0 0 279.22 268.87"><g transform="translate(-149.62-385.78)"><path d="m160.94 387.78c-2.47-.002-4.84.979-6.587 2.726-1.747 1.747-2.727 4.116-2.726 6.587v246.25c-.002 2.47.979 4.84 2.726 6.587 1.747 1.747 4.117 2.727 6.587 2.726h256.59c2.47.002 4.84-.979 6.587-2.726 1.747-1.747 2.727-4.116 2.726-6.587v-246.25c.002-2.47-.979-4.84-2.726-6.587-1.747-1.747-4.116-2.727-6.587-2.726h-256.59zm9.281 18.625h238v227.66h-238v-227.66z" fill="#00f" stroke="#000" stroke-linejoin="round" stroke-linecap="round" stroke-width="4" stroke-miterlimit="1"/><g transform="matrix(.61031 0 0 .61031 218.62 378.76)"><use height="1052.36" transform="translate(-196.43-192.86)" width="744.09" xlink:href="#0"/><path d="m33.926 377.9h-6.348l-.063-19.11c-4.443-.085-8.887-.603-13.33-1.555-4.443-.952-8.908-2.38-13.394-4.285v-11.426c4.316 2.708 8.686 4.75 13.11 6.125 4.422 1.375 8.982 2.084 13.679 2.126v-28.945c-9.352-1.523-16.15-4.105-20.408-7.744-4.253-3.639-6.379-8.633-6.379-14.98 0-6.898 2.306-12.336 6.919-16.313 4.613-3.978 11.235-6.263 19.868-6.855v-14.917h6.348v14.727c3.935.169 7.744.582 11.426 1.238 3.682.656 7.279 1.555 10.791 2.698v11.11c-3.512-1.777-7.12-3.153-10.823-4.126-3.703-.973-7.501-1.545-11.394-1.714v27.1c9.606 1.481 16.673 4.126 21.2 7.935 4.528 3.809 6.792 9.01 6.792 15.615 0 7.152-2.402 12.791-7.205 16.916-4.803 4.126-11.733 6.506-20.789 7.141v19.233m-6.348-67.983v-26.03c-4.909.55-8.654 1.947-11.235 4.189-2.581 2.243-3.872 5.226-3.872 8.95 0 3.639 1.195 6.475 3.586 8.506 2.391 2.031 6.231 3.491 11.521 4.38m6.348 12.188v27.485c5.374-.719 9.426-2.243 12.156-4.57 2.729-2.327 4.094-5.395 4.094-9.204 0-3.724-1.301-6.686-3.904-8.887-2.603-2.2-6.718-3.809-12.346-4.824" fill="#fff"/></g><use height="1052.36" transform="matrix(.61031 0 0 .61031 98.74 157.45)" width="744.09" xlink:href="#0"/><path d="m255.21 440.18v7.05c-1.963-1.059-3.822-1.853-5.579-2.383-1.756-.529-3.422-.794-4.998-.794-3.822 0-6.483 1-7.981 3-1.498 2-2.247 5.74-2.247 11.215v8.329h15.15v5.54h-15.15v18.01h21.578v6.586h-38.469v-6.586h9.143v-18.01h-7.709v-5.54h7.709v-9.22c0-6.741 1.382-11.68 4.145-14.818 2.763-3.138 7.141-4.707 13.13-4.707 1.575 0 3.338.2 5.288.6 1.95.4 3.945.975 5.985 1.724" fill="#fff"/><g transform="matrix(.61031 0 0 .61031 186.66 271.66)"><use height="1052.36" transform="translate(25.714-187.14)" width="744.09" xlink:href="#0"/><path d="m286.81 347.77h-26.22v28.882h-12.759v-28.882h-26.406v-7.808h26.406v-3.237l-5.332-9.839h-21.07v-7.808h16.758l-20.12-37.2h12.06l24.06 44.43 23.931-44.43h12.12l-20.19 37.2h16.758v7.808h-21.01l-5.332 9.839v3.237h26.343v7.808" fill="#fff"/></g><g transform="matrix(.61031 0 0 .61031 202.35 261.06)" stroke="#000" stroke-width="6.554"><path d="M306.42857 509.50504A74.28571 74.28571 0 1 1 157.85714 509.50504 74.28571 74.28571 0 1 1 306.42857 509.50504z" id="0" transform="matrix(.95702 0 0 .95702 5.335 23.684)" opacity=".818" fill="#00f" stroke="#000" stroke-linejoin="round" stroke-width="6.848"/><path d="m253.14 474.07v12.44c-3.543-4.088-6.96-7.01-10.249-8.76-3.29-1.752-6.921-2.628-10.892-2.628-6.113 0-11.135 1.947-15.07 5.84-3.932 3.894-6.522 9.481-7.767 16.761h33.698l-3.212 7.183h-31.42c-.078.934-.127 1.849-.146 2.745-.019.896-.029 2.025-.029 3.387 0 1.246.001 2.317.029 3.212.019.896.068 1.81.146 2.745h26.05l-3.27 7.183h-21.842c1.246 7.281 3.835 12.887 7.767 16.82 3.932 3.932 8.955 5.899 15.07 5.899 3.971 0 7.602-.876 10.892-2.628 3.29-1.752 6.706-4.672 10.249-8.76v12.323c-3.465 2.803-6.999 4.906-10.6 6.307-3.601 1.402-7.271 2.102-11.01 2.102-9.227 0-16.849-2.823-22.864-8.468-6.02-5.645-9.802-13.51-11.359-23.594h-12.323l3.212-7.183h8.118c0-.895-.001-1.801-.029-2.716-.019-.915-.029-1.995-.029-3.241 0-1.363.001-2.501.029-3.416.019-.915.029-1.82.029-2.716h-11.33l3.212-7.183h9.111c1.557-10.01 5.353-17.832 11.388-23.477 6.03-5.645 13.646-8.468 22.835-8.468 3.816 0 7.524.691 11.125 2.073 3.601 1.382 7.096 3.456 10.483 6.22" fill="#fff" stroke="none"/></g></g></svg>
